X:0940
M:C
L:1/8
Q:1/2=104
K:D
g|fe (f/g/a) A2A=c|BABd     ed`eg|fe  f/g/a A2A=c|BABc     d2 D:|
  FA  AB/c/  dcBA |B/c/d AF Ee`eg|fd``ge    fdge |Bgfe     d2 D|]

